X:1
T:Schottis från Kalix
R:Schottis
S:Efter Bo Wikström 
O:Kalix, Norrbotten
Z:till abc Eva Zwahlen 2009-11-13
Q:1/4=180
M:4/4
L:1/8
K:Am
|:A2 EE E2 AB|c2 AA A2 Ac|e2 e2 de f2| e4-e3 e|d2 Bc d2 de|c2 cB A2 Ac|e2 ee d2 c2| B4-B2 (3BcB|
A2 EE E2 AB| c2 AA A2 Ac| e2 e2 de f2| e4-e2 ef|g2 gg a2 gf|efec A2 ac|e2 d2 c2 B2| A4 A4:|
|:a2 b2 a3 e|g2 f2 e4|edef edcB|ABcd e3 e|a2 b2 a3 e|g2 f2 e4 |edef edcB| A2 A2 A4:| 